packages/icon/src/svg/sort.icon.svg

<svg xmlns="http://www.w3.org/2000/svg" viewBox="0 0 24 24">
  <path d="M11.6464466,5.35355339 C11.8417088,5.15829124 12.1582912,5.15829124 12.3535534,5.35355339 L16.6464466,9.64644661 C16.8417088,9.84170876 16.8417088,10.1582912 16.6464466,10.3535534 L15.9430606,11.0569394 C15.747991,11.252009 15.4317888,11.2522295 15.2364473,11.0574321 L12,7.83 L8.7635527,11.0574321 C8.56821122,11.2522295 8.25200897,11.252009 8.05693937,11.0569394 L7.35355339,10.3535534 C7.15829124,10.1582912 7.15829124,9.84170876 7.35355339,9.64644661 L11.6464466,5.35355339 Z M11.6464466,18.6464468 L7.35355339,14.3535535 C7.15829124,14.1582914 7.15829124,13.8417089 7.35355339,13.6464468 L8.05693937,12.9430608 C8.25200897,12.7479912 8.56821122,12.7477707 8.7635527,12.942568 L12,16.1700002 L15.2364473,12.942568 C15.4317888,12.7477707 15.747991,12.7479912 15.9430606,12.9430608 L16.6464466,13.6464468 C16.8417088,13.8417089 16.8417088,14.1582914 16.6464466,14.3535535 L12.3535534,18.6464468 C12.1582912,18.8417089 11.8417088,18.8417089 11.6464466,18.6464468 Z"/>
</svg>

<svg aria-label="sort icon" viewBox="0 0 24 24"><path d="M11.646 5.354a.5.5 0 01.708 0l4.292 4.292a.5.5 0 010 .708l-.703.703a.5.5 0 01-.707 0L12 7.83l-3.236 3.227a.5.5 0 01-.707 0l-.703-.703a.5.5 0 010-.708l4.292-4.292zm0 13.292l-4.292-4.292a.5.5 0 010-.708l.703-.703a.5.5 0 01.707 0L12 16.17l3.236-3.227a.5.5 0 01.707 0l.703.703a.5.5 0 010 .708l-4.292 4.292a.5.5 0 01-.708 0z"/></svg>
